resources/haticons/SVG/flask.svg

<svg xmlns="http://www.w3.org/2000/svg" width="24" height="24"><path d="M7.172 20.655c-.914-.72-1.89-1.41-2.556-2.38-1.402-1.712-2.482-3.694-3.22-5.777C.95 11.143.796 9.69.222 8.388-.38 7.444.325 6.41 1.36 6.109c.46-.088 1.272-.523.293-.212-.878.644-.963-.585-.063-.662.615-.082.84-.585.63-1.037-.659-.43 1.6-.903.463-1.544C1.501 1.376 4.34 1.13 3.64 2.58c-.167 1.115 1.984-.204 1.485 1.083.507.619 1.9.141 1.865 1.009.74.05.993.672 1.687.72.72.325 2.023.58 2.267 1.391-.713.565-2.365-1.166-2.444.397.215 2.31.16 4.689 1.005 6.888.4 1.332 1.369 2.38 2.244 3.418.837 1.016 1.971 1.73 3.127 2.333 1.014.478 2.107.795 3.213.994.448-.343 1.24-1.617 1.938-1.08.033.604-1.388 1.263-.067 1.196.776-.234 1.314.6 1.953-.152.588.697 2.446-.446 2.027.98-.566.364-1.392.144-1.959.646-.935-.467-1.68.418-2.715.306-1.15.206-2.319.29-3.484.291-1.912-.151-3.865-.215-5.684-.88-1.025-.298-2.024-.882-2.926-1.465zm1.615.7c1 .432 1.979.888 3.075 1.026 1.74.241 3.537.614 5.283.274-.79-.357-1.608.14-2.395-.255-.944.203-1.957-.052-2.917-.177-1.092-.486-2.27-.82-3.292-1.452-1.277-.466.66.598 1.006.685.798.453-.878-.233-1.115-.421-.668-.375-.754-.297-.066.084.139.081.276.166.421.236zm-1.904-1.346c.97.359-.004-.682-.449-.622-.197-.341-.752-.557-.36-.74-.705.244-.738-.93-1.07-.763-.745-.235-.29-1.069-1.177-1.58-.081-.54-.882-1.008-1.138-1.822-.113-.416-.905-1.613-.418-.5.414 1.072 1.143 1.99 1.75 2.907.47.873 1.027 1.786 1.885 2.33.29.278.568.703.977.79zM4.09 16.942c.033-.146.177.317 0 0zm3.954 3.497c.215-.096-.309-.12 0 0zm.526.192c-.054-.265-.24.148 0 0zm.66.275c.313-.299-.484-.188 0 0zm1.128.63c.191-.282-.61-.107 0 0zM8.19 20.023c.487-.315-.63-.004 0 0zm.494.246c-.014-.166-.176.075 0 0zm2.47 1.542c.398.25 2.32.55 1.116.103-.201.042-2.231-.574-1.116-.103zm-3.921-3.054c-.039-.167-.616-.185 0 0zm1.15.67c.3-.209-.621-.16 0 0zm.967.593c.43-.162-.697-.163 0 0zm-2.585-1.773c.466.358 1.88.046.714-.213-.53-.283-1.727-.476-.912.17zm3.24 1.978c.194-.33-.814-.189 0 0zm-.984-.783c1.14.323-.958-.72-.281-.118l.15.068zm1.974 1.141c1.079.01-.975-.148 0 0zm-4.645-2.96c-.042-.201-.266.017 0 0zm6.47 3.984c.029-.363-.352.27 0 0zm-4.629-2.856c-.065-.191-.337-.008 0 0zm-1.739-1.254c.62-.037-.848-.273 0 0zm-2.06-1.332c-.077-.297-.674-.534 0 0zM9.8 19.6c-.114-.13-.054.028 0 0zm3.366 2.065c-.01-.197-.183.075 0 0zm-3.664-2.373c.06-.255-.529-.077 0 0zM6.995 17.7c.46-.049-.739-.311 0 0zm4.242 2.637c.718-.285-.7-.14 0 0zM9.03 18.84c.828.106-.985-.563-.181-.06zm2.877 1.768c.773-.462.518 1.082 1.311.13.782-.57-.675.707.289.103.697-.467 1.727.22 2.377.445.468-.023.923.405 1.403.145.923-.25-1.806-.37-1.09-.81-.845.245-1.47-.294-1.885-.835-.948-.219-2.044-.703-2.517-1.542-.192-.315.279.044-.166-.47-.571-.508-.856-1.085-1.24-1.702-.457-.244-.51-.963-.557-.024.004-.593-.553-.992-.689-.826-.002-.571.596-.285.177-.707-.09-.592-.387-1.209-.476-1.877-.138-.322-.02-1.011-.473-.282-.165.77-.055-.947.202-.38.337-.579-.12-.51-.14-.43.22-.488.14-1.18-.057-.916.117-.517.185-1.902-.175-1.656.218-.54.414-2.473-.534-1.736-.384.005-1.048.14-1.363.296.986.543-.099.196-.5.11-.052.502-.45.285-.946.29.793.098-.386.81-.841.534-.59.282.51.987.012 1.205.061.328-.905-.119-.83.64-.573-.241-.078.9.209.514.975.264.686.866.711 1.437-.159.333-.785-.783-.14-.731-.508-.827-.562-.299-.985.085-.099.028 1.079.547.34.803.65.1.668.67.8 1.03.391.407.311-.45.779.04-.296-.436-1.567-1.228-.544-.974-.005-.439-.185-.793.129-.784.31-.562-.325 1.387.375.672.193-.085.241-.563.59.045.505.498.182.858-.531.403.127.433.954.587.799 1.265.165.595.395.376.596.342.158.578.247.153.255-.123.721.155.552.581.778.88.497.224-.712-1.522.142-.526.898.811.337 1.15-.47 1.02.51-.041.675.69 1.313.664.582.277.976 1.34-.027.897-.348-.313-1.579-.7-.573-.104.929.43 1.666.688 2.562 1.227.64.458.918.982 1.16 1.086-.538.257-1.623-.206-.817-.348-.503-.091-1.068-.345-.587.28.41.343 1.45.306 1.637.345-.159.348-.43.376.006.403-.486.26.156.3.201.447zm-.994-2.808c-.296-.31-.373-.89-.053-.385.164.066.525.947.053.385zm3.238 2.057c.185-.011.006.14 0 0zm-3.706-2.816c-.011-.468.107.361 0 0zm-.322-.433c-.372-.719.47.204 0 0zm-3.9-2.692c.218-.059.107.374 0 0zm3.104 1.682c.134-.504.158.424 0 0zm-2.193-1.525c-.155-.278.323.261 0 0zm1.882.604c-.352-.79.25-.432.078.13zM5.77 12.512c-.158-.26-.418-1.02-.334-1.252.076.378.804 1.627.357.518-.494-.93.59.302.702.534.051.23-.305-.063-.064.478-.44-.617-.26.34-.661-.278zm-1.003-.691c.041-.603.23.413 0 0zm.451.155c.215-.455.365.634 0 0zm-1.085-.84c-.374-.37-.644-.713.017-.23.255.01-.566-.778.061-.25.66.12.326 1.082-.078.48zm.57-.015c.217-.215.115.212 0 0zm.35.113c-.328-.617.4.258 0 0zm-.697-.667c-1.086-.966 1.365.506.177.18zm3.111 1.808c-.47-.282-.124-1.984.036-.82.457-.148-.025.601.315.594-.053.473-.206.643-.351.226zm1.15.68c.047-.513.098.35 0 0zm-.2-.198c.053-.219.006.258 0 0zM4.57 10.25c-.697-.963 2.027.973.447.244-.165-.043-.364-.059-.447-.244zm2.216 1.175c-.066-.81.147.134 0 0zm1.682 1.079c.13-.462.01.305 0 0zM4.676 9.882c.415-.088 1.718.729.521.234-.133-.148-.417-.08-.521-.234zm3.56 1.775c.044-.829.248-.495.002.118zM4.985 9.594c.169-.248-.449-1.12.089-.313.232.185.672.31.283.387.611.539-.149.146-.372-.074zm3.075 1.804c.117-.944.103.553 0 0zM4.632 8.722c.129-.055.068.172 0 0zm.802.478c.206-.434.38.483 0 0zm2.263 1.259c-.002-.167.043.242 0 0zm-.131-.29c-.314-.776.292.41 0 0zm-.193-.509c-.053-.32.18.403 0 0zm.314-.51c-.216-.38.272-1.674.326-.871-.227.625-.065.975.093.136.293-.66-.063 1.303-.419.735zm.322-1.924c.094-.115.021.139 0 0zm-.538 10.613c-.128-.111.016.071 0 0zm1.11.561c.616.159.613-.096.055-.171-.3-.28-1.246-.575-.399-.035.056.142.234.139.344.206zm-2.192-1.455c.34.253 1.28.719.484.096.269-.312-.514-.478-.254-.686-.66-.404-.52-.368-.058-.356-.794-.354.114-.328.071-.51-.306-.06-1.52-.539-.805.04-.726-.37-.173.138-.392.084-.743-.202.66.565-.118.375.425.337 1.146.864.18.357-.128.183.691.46.892.6zm1.16.667c1.411.454-.691-.556 0 0zm5.94 3.598c.02-.28-.192.24 0 0zm.612.257c.325-.315.013.503.539-.077.006-.415-.016-.66-.605-.156-.162.09-.234.473.066.233zM4.408 15.38c-.1-.393-.7-.39 0 0zm.652.428c-.242-.402-.864-.364 0 0zm3.71 2.237c.362.321 1.663.236.44.04-.182-.269-1.151-.204-.44-.04zm5.098 3.149c.558-.468-.54.208 0 0zm1.16.796c.003-.15-.24.066 0 0zm.001-.21c.617-.654-.598.039 0 0zM2.805 14.038c-.526-.75-.327-1.088-.835-1.7-.096-.47-.87-1.533-.4-.406.43.659.558 1.679 1.235 2.106zm12.03 7.534c1.136-.734-.465-.32 0 0zm.867.34c.57-.488-.36-.102 0 0zM4.215 14.55c.163-.242-.42-.031 0 0zm11.306 7.129c.551-.355-.126-.3-.1.032zM8.05 16.97c-.02-.24-.291.02 0 0zm.461.266c-.146-.297-.225.047 0 0zm7.894 4.684c.705-.51-.428-.098-.148.096zm-.27-.13c.574-.482-.607.213 0 0zm1.38.918c.386-.258-.469-.083 0 0zM4.569 14.376c.517.116 2.066 1.274 1.152.08-.468-.138-.187-1.283-.665-1.08.32.535.264.763-.409.426-.846-.413-.475.204-.31.374-.225.052.298.196.232.2zm-2.356-1.86c.092-.383-.853-2.107-.446-.864.146.26.131.754.446.864zm4.324 2.666c-.266-.223-.013-.032 0 0zm.656.152c0-.405-.725-.164 0 0zm5.682 3.583c-.108-.278-.428-.006 0 0zm.273.199c-.04-.155-.157.03 0 0zm2.253 1.419c.216-.16-.27-.02 0 0zM3.39 12.816c.62-.24-.664-.171 0 0zm8.985 5.661c-.007-.401-.395.1 0 0zm-9.23-6.231c.398-.135-.368-.089 0 0zm1.155.56c-.007-.133-.122.05 0 0zm14.09 8.64c.513-.104 1.679.26 1.867-.136-.621-.015-2.15-.438-2.222.101l.136.022zM4.668 12.898c.009-.407-.317-.015 0 0zM1.63 10.79c-.138-.775-.525-.118 0 0zm.724.182c.009-.249-.663-.224 0 0zm.414.203c-.12-.097-.094.122 0 0zm2.605 1.67c.122-.112-.29-.083 0 0zm-2.88-2.128c-.07-.585-.84-.088 0 0zm-1.486-.964c-.02-.27-.144.102 0 0zm.221-.167c-.036-.32-.19.04 0 0zm1.22.729c.517-.203-.94-.42-.105-.039zm16.334 10.089c.33-.303-.42-.094 0 0zm1.974 1.023c.132-.392-.334.051 0 0zM2.573 9.676c.055-.379-.409.075 0 0zM.837 8.513c-.093-.535-.08-1.474.812-1.156-1.191.236.824 1.48.57.498.5.024.98-.296.716.19.987-.109 1.671-.964 2.624-.845.742-.098 1.554-.172 2.354-.471.658-.048 1.291-.756.93-1.175-.896-.076-1.835.036-2.827.233-1.098.228-2.096.662-3.205.849-1.08.145.217.4-.092.456-.564.196.672.328-.073.534-.46-.088-.94-.246-.743-.73-1.035.133-1.945.563-1.127 1.616zm2.494-1.27c.243-.894 1.3.735.398.118-.108-.08-.285-.146-.398-.118zm.047-.434c.35-.26.186.146 0 0zm.445.008c.032-.411 1.018.218.163.148zm.608-.245c.222-.26.064.231 0 0zm.156-.104c.37-.444 2.095-.283.832-.043-.338-.255-.598.15-.832.043zm2.251-.347c-.056-1.214 1.118.432 0 0zm.639-.004c.233-.612.906-.245.108-.123.017.065-.024.316-.108.123zM2.322 9.362c.697-.427-.741-.37 0 0zm.515.144c.245-.26-.531-.106 0 0zm-1.52-1.08c.399-.305-.471-.116 0 0zm20.603 12.89c.012-.355-.304.16 0 0zm-2.093-1.429c.06-.409-.27.036 0 0zm2.67 1.567c.557 0 1.688-.173.475-.173-.19.03-1.109.024-.475.173zM3.29 9.254c.451-.03.706-.497-.087-.47-1.23-.127 1.084.42-.158.264-.167.11.236.237.245.206zm.398.202c-.048-.29-.14.154 0 0zm.47-1.257c.197-.243-.27-.065 0 0zm-1.5-2.508c.806-.274 1.907-.581 2.287.135-.387-.466-.156-.924.21-.243.516.689.775-.313.438-.545.383.476.819.701.257.03.61-.734-1.223.097-1.64.088-.2.09-2.071.477-1.552.535zm.472-.903c.46-.347 1.588.206.864-.345-.07-.062-1.586.418-.864.345zm1.674.069c.538.013-.231-.722.409-.389-.105-.344-.746-.408-1.059-.545-.177.314.36.938.65.934zm-1.38-1.52c.186-.252-.326.128 0 0zm.684.164c.866-.115-.22-.373-.174-.01zm-1.277-1c-.61-.796 1.146.134.527-.7-.522-.415-1.023.468-.527.7zm7.825 4.215c.28-.496-1.155-.668-.188-.175.089.03.069.21.188.175z"/></svg>

<!-- Generated by IcoMoon.io -->
<svg version="1.1" xmlns="http://www.w3.org/2000/svg" width="24" height="24" viewBox="0 0 24 24">
<title>flask</title>
<path d="M7.172 20.655c-0.914-0.72-1.89-1.41-2.556-2.38-1.402-1.712-2.482-3.694-3.22-5.777-0.446-1.355-0.6-2.808-1.174-4.11-0.602-0.944 0.103-1.978 1.138-2.279 0.46-0.088 1.272-0.523 0.293-0.212-0.878 0.644-0.963-0.585-0.063-0.662 0.615-0.082 0.84-0.585 0.63-1.037-0.659-0.43 1.6-0.903 0.463-1.544-1.182-1.278 1.657-1.524 0.957-0.074-0.167 1.115 1.984-0.204 1.485 1.083 0.507 0.619 1.9 0.141 1.865 1.009 0.74 0.050 0.993 0.672 1.687 0.72 0.72 0.325 2.023 0.58 2.267 1.391-0.713 0.565-2.365-1.166-2.444 0.397 0.215 2.31 0.16 4.689 1.005 6.888 0.4 1.332 1.369 2.38 2.244 3.418 0.837 1.016 1.971 1.73 3.127 2.333 1.014 0.478 2.107 0.795 3.213 0.994 0.448-0.343 1.24-1.617 1.938-1.080 0.033 0.604-1.388 1.263-0.067 1.196 0.776-0.234 1.314 0.6 1.953-0.152 0.588 0.697 2.446-0.446 2.027 0.98-0.566 0.364-1.392 0.144-1.959 0.646-0.935-0.467-1.68 0.418-2.715 0.306-1.15 0.206-2.319 0.29-3.484 0.291-1.912-0.151-3.865-0.215-5.684-0.88-1.025-0.298-2.024-0.882-2.926-1.465zM8.787 21.355c1 0.432 1.979 0.888 3.075 1.026 1.74 0.241 3.537 0.614 5.283 0.274-0.79-0.357-1.608 0.14-2.395-0.255-0.944 0.203-1.957-0.052-2.917-0.177-1.092-0.486-2.27-0.82-3.292-1.452-1.277-0.466 0.66 0.598 1.006 0.685 0.798 0.453-0.878-0.233-1.115-0.421-0.668-0.375-0.754-0.297-0.066 0.084 0.139 0.081 0.276 0.166 0.421 0.236zM6.883 20.009c0.97 0.359-0.004-0.682-0.449-0.622-0.197-0.341-0.752-0.557-0.36-0.74-0.705 0.244-0.738-0.93-1.070-0.763-0.745-0.235-0.29-1.069-1.177-1.58-0.081-0.54-0.882-1.008-1.138-1.822-0.113-0.416-0.905-1.613-0.418-0.5 0.414 1.072 1.143 1.99 1.75 2.907 0.47 0.873 1.027 1.786 1.885 2.33 0.29 0.278 0.568 0.703 0.977 0.79zM4.090 16.942c0.033-0.146 0.177 0.317 0 0zM8.044 20.439c0.215-0.096-0.309-0.12 0 0zM8.57 20.631c-0.054-0.265-0.24 0.148 0 0zM9.23 20.906c0.313-0.299-0.484-0.188 0 0zM10.358 21.536c0.191-0.282-0.61-0.107 0 0zM8.19 20.023c0.487-0.315-0.63-0.004 0 0zM8.684 20.269c-0.014-0.166-0.176 0.075 0 0zM11.154 21.811c0.398 0.25 2.32 0.55 1.116 0.103-0.201 0.042-2.231-0.574-1.116-0.103zM7.233 18.757c-0.039-0.167-0.616-0.185 0 0zM8.383 19.427c0.3-0.209-0.621-0.16 0 0zM9.35 20.020c0.43-0.162-0.697-0.163 0 0zM6.765 18.247c0.466 0.358 1.88 0.046 0.714-0.213-0.53-0.283-1.727-0.476-0.912 0.17zM10.005 20.225c0.194-0.33-0.814-0.189 0 0zM9.021 19.442c1.14 0.323-0.958-0.72-0.281-0.118l0.15 0.068zM10.995 20.583c1.079 0.010-0.975-0.148 0 0zM6.35 17.623c-0.042-0.201-0.266 0.017 0 0zM12.82 21.607c0.029-0.363-0.352 0.27 0 0zM8.191 18.751c-0.065-0.191-0.337-0.008 0 0zM6.452 17.497c0.62-0.037-0.848-0.273 0 0zM4.392 16.165c-0.077-0.297-0.674-0.534 0 0zM9.8 19.6c-0.114-0.13-0.054 0.028 0 0zM13.166 21.665c-0.010-0.197-0.183 0.075 0 0zM9.502 19.292c0.060-0.255-0.529-0.077 0 0zM6.995 17.7c0.46-0.049-0.739-0.311 0 0zM11.237 20.337c0.718-0.285-0.7-0.14 0 0zM9.030 18.84c0.828 0.106-0.985-0.563-0.181-0.060zM11.907 20.608c0.773-0.462 0.518 1.082 1.311 0.13 0.782-0.57-0.675 0.707 0.289 0.103 0.697-0.467 1.727 0.22 2.377 0.445 0.468-0.023 0.923 0.405 1.403 0.145 0.923-0.25-1.806-0.37-1.090-0.81-0.845 0.245-1.47-0.294-1.885-0.835-0.948-0.219-2.044-0.703-2.517-1.542-0.192-0.315 0.279 0.044-0.166-0.47-0.571-0.508-0.856-1.085-1.24-1.702-0.457-0.244-0.51-0.963-0.557-0.024 0.004-0.593-0.553-0.992-0.689-0.826-0.002-0.571 0.596-0.285 0.177-0.707-0.090-0.592-0.387-1.209-0.476-1.877-0.138-0.322-0.020-1.011-0.473-0.282-0.165 0.77-0.055-0.947 0.202-0.38 0.337-0.579-0.12-0.51-0.14-0.43 0.22-0.488 0.14-1.18-0.057-0.916 0.117-0.517 0.185-1.902-0.175-1.656 0.218-0.54 0.414-2.473-0.534-1.736-0.384 0.005-1.048 0.14-1.363 0.296 0.986 0.543-0.099 0.196-0.5 0.11-0.052 0.502-0.45 0.285-0.946 0.29 0.793 0.098-0.386 0.81-0.841 0.534-0.59 0.282 0.51 0.987 0.012 1.205 0.061 0.328-0.905-0.119-0.83 0.64-0.573-0.241-0.078 0.9 0.209 0.514 0.975 0.264 0.686 0.866 0.711 1.437-0.159 0.333-0.785-0.783-0.14-0.731-0.508-0.827-0.562-0.299-0.985 0.085-0.099 0.028 1.079 0.547 0.34 0.803 0.65 0.1 0.668 0.67 0.8 1.030 0.391 0.407 0.311-0.45 0.779 0.040-0.296-0.436-1.567-1.228-0.544-0.974-0.005-0.439-0.185-0.793 0.129-0.784 0.31-0.562-0.325 1.387 0.375 0.672 0.193-0.085 0.241-0.563 0.59 0.045 0.505 0.498 0.182 0.858-0.531 0.403 0.127 0.433 0.954 0.587 0.799 1.265 0.165 0.595 0.395 0.376 0.596 0.342 0.158 0.578 0.247 0.153 0.255-0.123 0.721 0.155 0.552 0.581 0.778 0.88 0.497 0.224-0.712-1.522 0.142-0.526 0.898 0.811 0.337 1.15-0.47 1.020 0.51-0.041 0.675 0.69 1.313 0.664 0.582 0.277 0.976 1.34-0.027 0.897-0.348-0.313-1.579-0.7-0.573-0.104 0.929 0.43 1.666 0.688 2.562 1.227 0.64 0.458 0.918 0.982 1.16 1.086-0.538 0.257-1.623-0.206-0.817-0.348-0.503-0.091-1.068-0.345-0.587 0.28 0.41 0.343 1.45 0.306 1.637 0.345-0.159 0.348-0.43 0.376 0.006 0.403-0.486 0.26 0.156 0.3 0.201 0.447zM10.913 17.8c-0.296-0.31-0.373-0.89-0.053-0.385 0.164 0.066 0.525 0.947 0.053 0.385zM14.151 19.857c0.185-0.011 0.006 0.14 0 0zM10.445 17.041c-0.011-0.468 0.107 0.361 0 0zM10.123 16.608c-0.372-0.719 0.47 0.204 0 0zM6.223 13.916c0.218-0.059 0.107 0.374 0 0zM9.327 15.598c0.134-0.504 0.158 0.424 0 0zM7.134 14.073c-0.155-0.278 0.323 0.261 0 0zM9.016 14.677c-0.352-0.79 0.25-0.432 0.078 0.13zM5.77 12.512c-0.158-0.26-0.418-1.020-0.334-1.252 0.076 0.378 0.804 1.627 0.357 0.518-0.494-0.93 0.59 0.302 0.702 0.534 0.051 0.23-0.305-0.063-0.064 0.478-0.44-0.617-0.26 0.34-0.661-0.278zM4.767 11.821c0.041-0.603 0.23 0.413 0 0zM5.218 11.976c0.215-0.455 0.365 0.634 0 0zM4.133 11.136c-0.374-0.37-0.644-0.713 0.017-0.23 0.255 0.010-0.566-0.778 0.061-0.25 0.66 0.12 0.326 1.082-0.078 0.48zM4.703 11.121c0.217-0.215 0.115 0.212 0 0zM5.053 11.234c-0.328-0.617 0.4 0.258 0 0zM4.356 10.567c-1.086-0.966 1.365 0.506 0.177 0.18zM7.467 12.375c-0.47-0.282-0.124-1.984 0.036-0.82 0.457-0.148-0.025 0.601 0.315 0.594-0.053 0.473-0.206 0.643-0.351 0.226zM8.617 13.055c0.047-0.513 0.098 0.35 0 0zM8.417 12.857c0.053-0.219 0.006 0.258 0 0zM4.57 10.25c-0.697-0.963 2.027 0.973 0.447 0.244-0.165-0.043-0.364-0.059-0.447-0.244zM6.786 11.425c-0.066-0.81 0.147 0.134 0 0zM8.468 12.504c0.13-0.462 0.010 0.305 0 0zM4.676 9.882c0.415-0.088 1.718 0.729 0.521 0.234-0.133-0.148-0.417-0.080-0.521-0.234zM8.236 11.657c0.044-0.829 0.248-0.495 0.002 0.118zM4.985 9.594c0.169-0.248-0.449-1.12 0.089-0.313 0.232 0.185 0.672 0.31 0.283 0.387 0.611 0.539-0.149 0.146-0.372-0.074zM8.060 11.398c0.117-0.944 0.103 0.553 0 0zM4.632 8.722c0.129-0.055 0.068 0.172 0 0zM5.434 9.2c0.206-0.434 0.38 0.483 0 0zM7.697 10.459c-0.002-0.167 0.043 0.242 0 0zM7.566 10.169c-0.314-0.776 0.292 0.41 0 0zM7.373 9.66c-0.053-0.32 0.18 0.403 0 0zM7.687 9.15c-0.216-0.38 0.272-1.674 0.326-0.871-0.227 0.625-0.065 0.975 0.093 0.136 0.293-0.66-0.063 1.303-0.419 0.735zM8.009 7.226c0.094-0.115 0.021 0.139 0 0zM7.471 17.839c-0.128-0.111 0.016 0.071 0 0zM8.581 18.4c0.616 0.159 0.613-0.096 0.055-0.171-0.3-0.28-1.246-0.575-0.399-0.035 0.056 0.142 0.234 0.139 0.344 0.206zM6.389 16.945c0.34 0.253 1.28 0.719 0.484 0.096 0.269-0.312-0.514-0.478-0.254-0.686-0.66-0.404-0.52-0.368-0.058-0.356-0.794-0.354 0.114-0.328 0.071-0.51-0.306-0.060-1.52-0.539-0.805 0.040-0.726-0.37-0.173 0.138-0.392 0.084-0.743-0.202 0.66 0.565-0.118 0.375 0.425 0.337 1.146 0.864 0.18 0.357-0.128 0.183 0.691 0.46 0.892 0.6zM7.549 17.612c1.411 0.454-0.691-0.556 0 0zM13.489 21.21c0.020-0.28-0.192 0.24 0 0zM14.101 21.467c0.325-0.315 0.013 0.503 0.539-0.077 0.006-0.415-0.016-0.66-0.605-0.156-0.162 0.090-0.234 0.473 0.066 0.233zM4.408 15.38c-0.1-0.393-0.7-0.39 0 0zM5.060 15.808c-0.242-0.402-0.864-0.364 0 0zM8.77 18.045c0.362 0.321 1.663 0.236 0.44 0.040-0.182-0.269-1.151-0.204-0.44-0.040zM13.868 21.194c0.558-0.468-0.54 0.208 0 0zM15.028 21.99c0.003-0.15-0.24 0.066 0 0zM15.029 21.78c0.617-0.654-0.598 0.039 0 0zM2.805 14.038c-0.526-0.75-0.327-1.088-0.835-1.7-0.096-0.47-0.87-1.533-0.4-0.406 0.43 0.659 0.558 1.679 1.235 2.106zM14.835 21.572c1.136-0.734-0.465-0.32 0 0zM15.702 21.912c0.57-0.488-0.36-0.102 0 0zM4.215 14.55c0.163-0.242-0.42-0.031 0 0zM15.521 21.679c0.551-0.355-0.126-0.3-0.1 0.032zM8.050 16.97c-0.020-0.24-0.291 0.020 0 0zM8.511 17.236c-0.146-0.297-0.225 0.047 0 0zM16.405 21.92c0.705-0.51-0.428-0.098-0.148 0.096zM16.135 21.79c0.574-0.482-0.607 0.213 0 0zM17.515 22.708c0.386-0.258-0.469-0.083 0 0zM4.569 14.376c0.517 0.116 2.066 1.274 1.152 0.080-0.468-0.138-0.187-1.283-0.665-1.080 0.32 0.535 0.264 0.763-0.409 0.426-0.846-0.413-0.475 0.204-0.31 0.374-0.225 0.052 0.298 0.196 0.232 0.2zM2.213 12.516c0.092-0.383-0.853-2.107-0.446-0.864 0.146 0.26 0.131 0.754 0.446 0.864zM6.537 15.182c-0.266-0.223-0.013-0.032 0 0zM7.193 15.334c0-0.405-0.725-0.164 0 0zM12.875 18.917c-0.108-0.278-0.428-0.006 0 0zM13.148 19.116c-0.040-0.155-0.157 0.030 0 0zM15.401 20.535c0.216-0.16-0.27-0.020 0 0zM3.39 12.816c0.62-0.24-0.664-0.171 0 0zM12.375 18.477c-0.007-0.401-0.395 0.1 0 0zM3.145 12.246c0.398-0.135-0.368-0.089 0 0zM4.3 12.806c-0.007-0.133-0.122 0.050 0 0zM18.39 21.446c0.513-0.104 1.679 0.26 1.867-0.136-0.621-0.015-2.15-0.438-2.222 0.101l0.136 0.022zM4.668 12.898c0.009-0.407-0.317-0.015 0 0zM1.63 10.79c-0.138-0.775-0.525-0.118 0 0zM2.354 10.972c0.009-0.249-0.663-0.224 0 0zM2.768 11.175c-0.12-0.097-0.094 0.122 0 0zM5.373 12.845c0.122-0.112-0.29-0.083 0 0zM2.493 10.717c-0.070-0.585-0.84-0.088 0 0zM1.007 9.753c-0.020-0.27-0.144 0.102 0 0zM1.228 9.586c-0.036-0.32-0.19 0.040 0 0zM2.448 10.315c0.517-0.203-0.94-0.42-0.105-0.039zM18.782 20.404c0.33-0.303-0.42-0.094 0 0zM20.756 21.427c0.132-0.392-0.334 0.051 0 0zM2.573 9.676c0.055-0.379-0.409 0.075 0 0zM0.837 8.513c-0.093-0.535-0.080-1.474 0.812-1.156-1.191 0.236 0.824 1.48 0.57 0.498 0.5 0.024 0.98-0.296 0.716 0.19 0.987-0.109 1.671-0.964 2.624-0.845 0.742-0.098 1.554-0.172 2.354-0.471 0.658-0.048 1.291-0.756 0.93-1.175-0.896-0.076-1.835 0.036-2.827 0.233-1.098 0.228-2.096 0.662-3.205 0.849-1.080 0.145 0.217 0.4-0.092 0.456-0.564 0.196 0.672 0.328-0.073 0.534-0.46-0.088-0.94-0.246-0.743-0.73-1.035 0.133-1.945 0.563-1.127 1.616zM3.331 7.243c0.243-0.894 1.3 0.735 0.398 0.118-0.108-0.080-0.285-0.146-0.398-0.118zM3.378 6.809c0.35-0.26 0.186 0.146 0 0zM3.823 6.817c0.032-0.411 1.018 0.218 0.163 0.148zM4.431 6.572c0.222-0.26 0.064 0.231 0 0zM4.587 6.468c0.37-0.444 2.095-0.283 0.832-0.043-0.338-0.255-0.598 0.15-0.832 0.043zM6.838 6.121c-0.056-1.214 1.118 0.432 0 0zM7.477 6.117c0.233-0.612 0.906-0.245 0.108-0.123 0.017 0.065-0.024 0.316-0.108 0.123zM2.322 9.362c0.697-0.427-0.741-0.37 0 0zM2.837 9.506c0.245-0.26-0.531-0.106 0 0zM1.317 8.426c0.399-0.305-0.471-0.116 0 0zM21.92 21.316c0.012-0.355-0.304 0.16 0 0zM19.827 19.887c0.060-0.409-0.27 0.036 0 0zM22.497 21.454c0.557 0 1.688-0.173 0.475-0.173-0.19 0.030-1.109 0.024-0.475 0.173zM3.29 9.254c0.451-0.030 0.706-0.497-0.087-0.47-1.23-0.127 1.084 0.42-0.158 0.264-0.167 0.11 0.236 0.237 0.245 0.206zM3.688 9.456c-0.048-0.29-0.14 0.154 0 0zM4.158 8.199c0.197-0.243-0.27-0.065 0 0zM2.658 5.691c0.806-0.274 1.907-0.581 2.287 0.135-0.387-0.466-0.156-0.924 0.21-0.243 0.516 0.689 0.775-0.313 0.438-0.545 0.383 0.476 0.819 0.701 0.257 0.030 0.61-0.734-1.223 0.097-1.64 0.088-0.2 0.090-2.071 0.477-1.552 0.535zM3.13 4.788c0.46-0.347 1.588 0.206 0.864-0.345-0.070-0.062-1.586 0.418-0.864 0.345zM4.804 4.857c0.538 0.013-0.231-0.722 0.409-0.389-0.105-0.344-0.746-0.408-1.059-0.545-0.177 0.314 0.36 0.938 0.65 0.934zM3.424 3.337c0.186-0.252-0.326 0.128 0 0zM4.108 3.501c0.866-0.115-0.22-0.373-0.174-0.010zM2.831 2.501c-0.61-0.796 1.146 0.134 0.527-0.7-0.522-0.415-1.023 0.468-0.527 0.7zM10.656 6.716c0.28-0.496-1.155-0.668-0.188-0.175 0.089 0.030 0.069 0.21 0.188 0.175z"></path>
</svg>
